svgs/kinopoisk.svg

<?xml version="1.0" encoding="UTF-8" standalone="no"?>
<svg
   width="192"
   height="192"
   viewBox="0 0 192 192"
   fill="none"
   version="1.1"
   id="svg1011"
   xml:space="preserve"
   sodipodi:docname="kinopoisk.svg"
   inkscape:version="1.2.2 (732a01da63, 2022-12-09)"
   xmlns:inkscape="http://www.inkscape.org/namespaces/inkscape"
   xmlns:sodipodi="http://sodipodi.sourceforge.net/DTD/sodipodi-0.dtd"
   xmlns="http://www.w3.org/2000/svg"
   xmlns:svg="http://www.w3.org/2000/svg"><sodipodi:namedview
     id="namedview7"
     pagecolor="#ffffff"
     bordercolor="#000000"
     borderopacity="0.25"
     inkscape:showpageshadow="2"
     inkscape:pageopacity="0.0"
     inkscape:pagecheckerboard="0"
     inkscape:deskcolor="#d1d1d1"
     showgrid="true"
     inkscape:zoom="4.3177083"
     inkscape:cx="94.610374"
     inkscape:cy="96.115802"
     inkscape:window-width="1920"
     inkscape:window-height="1009"
     inkscape:window-x="-8"
     inkscape:window-y="-8"
     inkscape:window-maximized="1"
     inkscape:current-layer="svg1011"><inkscape:grid
       type="xygrid"
       id="grid290" /></sodipodi:namedview><defs
     id="defs1009"><clipPath
       id="a"><path
         fill="#fff"
         d="M0 0h192v192H0z"
         id="path1006" /></clipPath></defs><path
     style="display:inline;fill:none;stroke:#000000;stroke-width:8;stroke-linecap:round;stroke-linejoin:round;stroke-miterlimit:10;stroke-dasharray:none;stroke-opacity:1"
     d="M 96.499938,19.999941 66.099916,75.733317 V 19.999941 H 40.766562 V 172.00006 h 25.333354 v -55.73338 c 10.13334,18.57779 20.266681,37.1556 30.400022,55.73338 H 131.96663 C 116.76662,153.42228 95.200024,133.57777 80,115 c 28.71113,16.88891 63.78887,35.04449 92.5,51.9334 V 136.53336 C 148.85554,126.40002 108.64446,115.13333 85,105 c 23.64446,3.37777 63.85554,7.88891 87.5,11.26668 V 85.866659 L 85,90 C 112.02225,78.177767 145.47776,67.288868 172.5,55.466635 V 25.066612 C 143.78887,41.955514 108.71112,63.111099 80,80 l 51.96663,-60.000058 z"
     id="path17958"
     sodipodi:nodetypes="ccccccccccccccccccccc" /></svg>

<svg width="192" height="192" viewBox="0 0 192 192" fill="none" xml:space="preserve" xmlns="http://www.w3.org/2000/svg"><path style="display:inline;fill:none;stroke:#000;stroke-width:8;stroke-linecap:round;stroke-linejoin:round;stroke-miterlimit:10;stroke-dasharray:none;stroke-opacity:1" d="M96.5 20 66.1 75.733V20H40.767v152H66.1v-55.733L96.5 172h35.467C116.767 153.422 95.2 133.578 80 115c28.711 16.889 63.789 35.044 92.5 51.933v-30.4C148.856 126.4 108.644 115.133 85 105c23.644 3.378 63.856 7.889 87.5 11.267v-30.4L85 90c27.022-11.822 60.478-22.711 87.5-34.533v-30.4C143.789 41.956 108.711 63.11 80 80l51.967-60z"/></svg>
